X:54
T:Victoria Sett Of Quadrilles No.4. Le4.054
B:L.Leadley MS#4 c1850
Z:Village Music Project, 2016 Steve Mansfield
M:2/4
L:1/8
Q:2/4=50
K:Gmix
gg/f/ ec' | gg/f/ ec' | aa/g/ f/g/a/f/ | (g/a/).g/.f/ e2 |
ff/e/ dd | g(g/f/) ec | dd/c/ c/d/e/B/ | cec z ||
dd/c/ BG | cc/e/ eg | ff/e/ da | (g/a/).g/.f/ e2 |
dd/c/ BG | gg/f/ ec | aa/g/ ^fd | gbg z !segno! ||
cB | AA/A/ AA/A/ | AA/B/ cc/d/ | eaea | fe/d/ cc/B/ |
AA/A/ AA/A/ | AA/B/ cc/d/ | eaed | cc/B/ Az !segno! |]

